<?xml version='1.0' encoding='utf-8'?>
<map version="1.10" tiledversion="1.11.2" orientation="orthogonal" renderorder="right-down" compressionlevel="0" width="16" height="10" tilewidth="32" tileheight="32" infinite="0" nextlayerid="7" nextobjectid="152"><tileset firstgid="1" source="../../imgs/tiled_tilesets/dungeon.tsx" /><tileset firstgid="6081" source="../../imgs/tiled_tilesets/houses.tsx" /><layer id="1" name="ground" width="16" height="10"><data encoding="csv">
589,589,589,589,589,589,589,589,589,589,589,589,589,589,589,589,
589,589,589,589,589,589,589,589,589,589,589,589,589,589,589,589,
589,589,589,589,589,589,589,589,589,589,589,589,589,589,589,589,
589,589,589,589,589,589,589,589,589,589,589,589,589,589,589,589,
589,589,589,589,589,589,589,589,589,589,589,589,589,589,589,589,
589,589,589,589,589,589,589,589,589,589,589,589,589,589,589,589,
589,589,589,589,589,589,589,589,589,589,589,589,589,589,589,589,
589,589,589,589,589,589,589,589,589,589,589,589,589,589,589,589,
589,589,589,589,589,589,589,589,589,589,589,589,589,589,589,589,
589,589,589,589,589,589,589,589,589,589,589,589,589,589,589,589
</data></layer><layer id="2" name="obstacles" width="16" height="10"><data encoding="csv">
1,850,1,1,1,1,1,851,6116,1,1,848,6129,6093,6095,6131,
848,1,854,1,848,1,852,1,1,850,1,1,1,1,1,853,
1,1,1,1,1,850,1,848,1,1,848,1,1,1,851,854,
1,1,1,1,1,1,1,1,1,1,1,1,1,848,1,6081,
854,1,1,1,1,1,1,1,1,1,1,1,1,1,1,6087,
847,852,1,1,1,1,1,1,1,1,1,1,1,1,1,6093,
848,1,1,854,1,1,1,1,1,1,1,1,1,1,1,849,
1,852,1,1,1,848,1,848,1,1,1,1,1,1,1,848,
1,854,848,1,848,1,848,1,852,1,854,1,1,1,1,850,
1,1,1,854,1,852,1,854,852,854,1,6081,6082,6083,848,1
</data></layer><layer id="3" name="allies" width="16" height="10"><data encoding="csv">
0,0,0,0,0,0,0,0,0,0,0,0,0,0,0,0,
0,0,0,0,0,0,0,0,0,0,0,0,0,0,0,0,
0,0,0,0,0,0,0,0,0,0,0,0,0,0,0,0,
0,0,0,0,0,0,0,0,0,0,0,0,0,0,0,0,
0,0,0,0,0,0,0,0,0,0,0,0,0,0,0,0,
0,0,0,0,0,0,0,0,0,0,0,0,0,0,0,0,
0,0,0,0,0,0,0,0,0,0,0,0,0,0,0,0,
0,0,0,0,0,0,0,0,0,0,0,0,0,0,0,0,
0,0,0,0,0,0,0,0,0,0,0,0,0,0,0,0,
0,0,0,0,0,0,0,0,0,0,0,0,0,0,0,0
</data></layer><layer id="4" name="foes" width="16" height="10"><data encoding="csv">
0,0,0,0,0,0,0,0,0,0,0,0,0,0,0,0,
0,0,0,0,0,0,0,0,0,0,0,0,0,0,0,0,
0,0,0,0,0,0,0,0,0,0,0,0,0,0,0,0,
0,0,0,0,0,0,0,0,0,0,0,0,0,0,0,0,
0,0,0,0,0,0,0,0,0,0,0,0,0,0,0,0,
0,0,0,0,0,0,0,0,0,0,0,0,0,0,0,0,
0,0,0,0,0,0,0,0,0,0,0,0,0,0,0,0,
0,0,0,0,0,0,0,0,0,0,0,0,0,0,0,0,
0,0,0,0,0,0,0,0,0,0,0,0,0,0,0,0,
0,0,0,0,0,0,0,0,0,0,0,0,0,0,0,0
</data></layer><objectgroup id="5" name="dynamic_data"><object id="14" x="0.0" y="96.0" width="32.0" height="32.0" name="Exit" type="objective" gid="1099"><properties><property name="mission" value="main" /><property name="walkable" type="bool" value="true" /></properties></object><object id="104" x="0.0" y="128.0" width="32.0" height="32.0" name="Exit" type="objective" gid="1093"><properties><property name="mission" value="main" /><property name="walkable" type="bool" value="true" /></properties></object><object id="112" x="416.0" y="128.0" width="32.0" height="32.0" name="skeleton" type="foe" gid="0"><properties><property name="level" type="int" value="1" /></properties></object><object id="115" x="320.0" y="192.0" width="32.0" height="32.0" name="skeleton" type="foe" gid="0"><properties><property name="level" type="int" value="1" /></properties></object><object id="119" x="224.0" y="96.0" width="32.0" height="32.0" name="skeleton" type="foe" gid="0"><properties><property name="level" type="int" value="1" /></properties></object><object id="120" x="32.0" y="32.0" width="32.0" height="32.0" name="skeleton" type="foe" gid="0"><properties><property name="level" type="int" value="3" /></properties></object><object id="121" x="384.0" y="64.0" width="32.0" height="32.0" name="necrophage" type="foe" gid="0"><properties><property name="level" type="int" value="1" /></properties></object><object id="122" x="192.0" y="160.0" width="32.0" height="32.0" name="necrophage" type="foe" gid="0"><properties><property name="level" type="int" value="1" /></properties></object><object id="123" x="64.0" y="128.0" width="32.0" height="32.0" name="necrophage" type="foe" gid="0"><properties><property name="level" type="int" value="1" /></properties></object><object id="125" x="384.0" y="224.0" width="32.0" height="32.0" name="placement" type="placement" gid="0" /><object id="130" x="384.0" y="256.0" width="32.0" height="32.0" name="placement" type="placement" gid="0" /><object id="131" x="416.0" y="256.0" width="32.0" height="32.0" name="placement" type="placement" gid="0" /><object id="126" x="416.0" y="224.0" width="32.0" height="32.0" name="placement" type="placement" gid="0" /><object id="128" x="384.0" y="256.0" width="32.0" height="0.0" gid="0" /><object id="132" x="224.0" y="64.0" width="32.0" height="32.0" type="chest" gid="8"><properties><property name="closed_sprite" value="imgs/dungeon_crawl/dungeon/chest_2_closed.png" /><property name="content_possibilities" type="int" value="1" /><property name="item_0_name" value="life_potion" /><property name="item_0_probability" type="float" value="1.0" /><property name="opened_sprite" value="imgs/dungeon_crawl/dungeon/chest_2_open.png" /></properties></object><object id="140" x="384.0" y="192.0" width="32.0" height="32.0" name="jist" type="ally" gid="0" /><object id="143" x="128.0" y="192.0" width="32.0" height="32.0" name="house" type="building" gid="6111"><properties><property name="gold" type="int" value="500" /><property name="house_dialogs" value="0" /><property name="sprite_link" value="imgs/houses/blue_house.png" /></properties></object><object id="144" x="96.0" y="64.0" width="32.0" height="32.0" name="house" type="building" gid="6113"><properties><property name="sprite_link" value="imgs/houses/blue_house_side.png" /></properties></object><object id="145" x="192.0" y="128.0" width="32.0" height="32.0" name="house" type="building" gid="6099"><properties><property name="house_dialogs" value="1" /><property name="items" value="pocket_knife" /><property name="sprite_link" value="imgs/houses/yellow_house.png" /></properties></object><object id="146" x="320.0" y="160.0" width="32.0" height="32.0" name="house" type="building" gid="6105"><properties><property name="house_dialogs" value="2" /><property name="sprite_link" value="imgs/houses/red_house.png" /></properties></object><object id="147" x="384.0" y="192.0" width="32.0" height="32.0" name="tavern" type="building" gid="6103"><properties><property name="sprite_link" value="imgs/houses/tavern.png" /></properties></object><object id="151" x="320.0" y="32.0" width="32.0" height="32.0" name="shop" type="building" gid="6109"><properties><property name="house_dialogs" value="3" /><property name="item_0_name" value="life_potion" /><property name="item_0_quantity" type="int" value="5" /><property name="item_1_name" value="short_sword" /><property name="item_1_quantity" type="int" value="2" /><property name="item_2_name" value="wooden_shield" /><property name="item_2_quantity" type="int" value="2" /><property name="item_3_name" value="scroll_of_knowledge" /><property name="item_3_quantity" type="int" value="3" /><property name="kind" value="shop" /><property name="money" type="int" value="500" /><property name="number_items" type="int" value="4" /><property name="sprite_link" value="imgs/houses/shop.png" /></properties></object></objectgroup><objectgroup id="6" name="events"><object id="139" x="0.0" y="0.0" width="32.0" height="32.0" name="before_init" type="before_init" gid="0"><properties><property name="dialogs" value="0,1" /><property name="new_players" value="raimund,braern,thokdrum" /></properties></object></objectgroup></map>